portfolio/useful-language/assets/images/svg/icons/menu-icon.svg

<svg width="18" height="11" xmlns="http://www.w3.org/2000/svg"><path d="M0 0h18v1H0V0zm0 10h18v1H0v-1zm0-5h18v1H0V5z" fill="#4D4D4D" fill-rule="nonzero"/></svg>

<?xml version="1.0" encoding="UTF-8"?>
<svg width="18px" height="11px" viewBox="0 0 18 11" version="1.1" xmlns="http://www.w3.org/2000/svg" xmlns:xlink="http://www.w3.org/1999/xlink">
    <!-- Generator: Sketch 56 (81588) - https://sketch.com -->
    <title>Shape</title>
    <desc>Created with Sketch.</desc>
    <g id="Page-1" stroke="none" stroke-width="1" fill="none" fill-rule="evenodd">
        <g id="menu-icon" fill="#4D4D4D" fill-rule="nonzero">
            <path d="M0,0 L18,0 L18,1 L0,1 L0,0 Z M0,10 L18,10 L18,11 L0,11 L0,10 Z M0,5 L18,5 L18,6 L0,6 L0,5 Z" id="Shape"></path>
        </g>
    </g>
</svg>
